X:1
T:Veni Domine
T:Veni Domine
T: Il secondo libro delli Motetti (Venezia, 1615).
T:Bartolomeo Barbarino
T:@JonatasL.Monteiro2020
T:@JonatasL.Monteiro2020
T:@JonatasL.Monteiro2020
C:Bartolomeo Barbarino
Z:@JonatasL.Monteiro2020
%%score 1 2 3
L:1/8
M:2/2
K:D
V:1 treble nm="Passaggiato"
V:2 treble nm="Semplice"
V:3 bass nm="B.C" snm="\n"
V:1
 D6 E2 F<EF<G AGA/G/F/E/ F8 |[M:3/2] B16 A8 G16 E8 F8 G4 A4 F8 E24 | %2
w: Ve- * * * * * * * * * * * ni|Ve- ni Do- mi- ne in cor me- um|
[M:2/2] AB/A/GA/G/ FB/A/G/F/E/D/ E4 D4 | B>cA>B G/E/F/G/ A/G/F/E/ ^D E2 D E2 E2 | %4
w: ve- * * * * * * * * * * * * * ni|ve- * * * * * * * * * * * * * * ni et|
 F2 F A ^G/F/G/A/G/A/B/G/ A4 z4 z4 z2 F2 | G2 A B E4 D8 :| A6 B/A/G/F/ E6 E/D/E/F/ G3 G G2 E2 | %7
w: no- li tar- da- * * * * * * * re et|no- li tar- da- re|ve- * * * * ni et _ _ _ re- spi- ce in|
 F6 F/E/F/G/ A3 A A<G A<F ^G8 | z8 z4 F4 | G4 G4 ^G4- GA/B<TAG/ ^A4 A<FG<A | %10
w: me et _ _ _ re- spi- ce _ in _ me|et|mi- se- re- * * * * * re et _ _ _|
 B4 G4 G4 F>GA/G/F/E/ D>ED>E FEF/E/E/D/ E8 | A4 F4 FEF/D/E/F/ G4 G/A/B/G/=c/B/A/G/ F G2 F | %12
w: mi- se- re- re _ _ _ _ _ me- * * * * * * * * * i|qui- a De- * * * * * us me- * * * * * * * * * *|
 G4 E6 F/G/A/B/ ^D4 B4 ^G E/F/G/A/B/G/ | A2 A G F D/E/F/G/A/F/ G>AB/A/G/F/ E4 | %14
w: us es _ _ _ _ tu ve- ni et _ _ _ _ _|vi- de la- bo- rem _ _ _ _ _ me- * * * * * um|
 F>GA/G/F/E/ ^D B,/C/D/E/F/D/ E2 E =D C A,/B,/C/D/E/C/ | %15
w: ve- * * * * * ni et _ _ _ _ _ vi- de la- bo- rem _ _ _ _ _|
 D>EF/E/D/C/ B,4 G>AGA/B/ E4 A>BA/B/G/A/ F4 | B2 A3/2 G/ A6 G3/2 F/ G6 F/G/A/D/ E4 D8 | %17
w: me- * * * * * um ve- * * * * ni ve- * * * * * ni|ve- ni et vi- de la- bo- rem _ _ _ me- um|
 F2 E3/2 D/ E6 D3/2 C/ D6 C/B,/C/A,/ B,4 | A,4 A>BA3/2 E/ F2 F2 B>cB3/2 F/ | %19
w: ve- ni et vi- de la- bo- rem _ _ _ me-|um et _ _ di- mit- te et _ _ di-|
 ^G2 G G A6 F2 DEF/E/E/D/ | E4 E3 B, C2 C2 A3 E | F2 F F G6 F/G/A/D/ E/F/G/F/ E2 | D16 |] %23
w: mit- te pec- ca- ta me- * * * * *|a et di- mi- te et di-|mit- te pec- ca- ta _ _ _ me- * * * *|a|
V:2
 D6 E2 F2 G2 A4 F8 |[M:3/2] B16 A8 G16 E8 F8 G4 A4 F8 E24 |[M:2/2] A2 G2 F2 ED E4 D4 | %3
w: Ve- * * * * ni|De- ni Do- mi- ne in cor me- um|ve- * * * * * ni|
 B2 A2 G2 FE F4 E2 E2 | F2 F A ^G4 A4 z4 z4 z2 F2 | G2 A B E4 D8 :| A8 E6 E2 G3 G G2 E2 | %7
w: ve- * * * * * ni et|no- li tar- da- re et|no- li tar- da- re|ve- ni et re- spi- ce in|
 F6 F2 A3 A A2 F2 ^G8 | z8 z4 F4 | G4 G4 ^G8 ^A4 A4 | B4 G4 G4 F4 D8 E8 | A4 F4 F4 G4 G4 F4 | %12
w: me et re- spi- ce in me|et|mi- se- re- re et|mi- se- re- re me- i|qui- a De- us me- *|
 G4 E8 ^D4 B4 ^G2 G2 | A2 A G F2 F2 G4 E4 | F4 ^D2 D2 E2 E D C2 C2 | D4 B,4 G4 E4 A4 F4 | %16
w: us es tu ve- ni et|vi- de la- bo- rem me- um|ve- ni et vi- de la- bo- rem|me- um ve- ni ve- ni|
 B2 A G A6 G F G6 F2 E4 D8 | F2 E D E6 D C D6 C2 B,4 | A,4 A3 E F2 F2 B3 F | ^G2 G G A6 F2 D4 | %20
w: ve- ni et vi- de la- bo- rem me- um|ve- ni et vi- de la- bo- rem me-|um et di- mit- te et di|mit- te pec- ca- ta me-|
 E4 E3 B, C2 C2 A3 E | F2 F F G6 F2 E4 | D16 |] %23
w: a et di- mi- te et di-|mit- te pec- ca- ta me-|a|
V:3
 D,8 B,,4 A,,4 D,,8 |[M:3/2] G,,16 F,,8 E,,16 =C,8 B,,8 A,,8 B,,8 E,,24 | %2
[M:2/2] F,,4 B,,4 A,,4 D,,4 | G,,4 F,,4 B,,4 E,,4 | D,,4 E,,4 A,,2 A,,2 B,,2 B,,D, C,4 D,4 | %5
 G,,4 A,,4 D,,8 :| D,,2 E,,2 F,,2 G,,2 A,,4 A,,4 E,,4 =C,4 | B,,4 B,,4 F,,4 B,,4 E,,4 E,2 D,2 | %8
 C,2 B,,2 A,,2 G,,2 F,,2 E,,2 D,,4 | E,,4 E,2 D,2 C,8 F,,4 F,,4 | G,,4 G,,4 =C,4 D,4 B,,8 A,,8 | %11
 A,,4 D,4 B,,4 B,,4 =C,4 D,4 | G,,4 =C,4 B,,8 B,,4 E,4 | C,4 D,4 B,,4 =C,4 | A,,4 B,,4 ^G,,4 A,,4 | %15
 F,,4 G,,4 E,,4 A,,4 F,,4 B,,4 | G,,4 D,2 =C,B,, C,6 B,,2 A,,8 D,,8 | %17
 D,2 C,B,, A,,2 G,,F,, G,,6 F,,2 E,,8 | A,,4 A,,4 D,4 ^D,4 | E,4 C,4 D,4 B,,4 | %20
 A,,4 E,,4 A,,4 C,4 | D,4 =C,2 B,,2 A,,8 | D,,16 |] %23

